X: 13098
T: Fire Hose, The
R: reel
M: 4/4
K: Dmajor
AB/c/|"D"dAFE D2 FA|"G"BGED "E"B,2 ED|"A"CEAc egfe|"D"fdB_B "A7"A_B=Bc|
"D"dAFE D2 FA|"G"BGED "E"B,2 ED|"A7"CEAc egfe|"D"f2d2d2:|fg|
"D"afdf a3a|"G"bged "E"B2 ed|"A"cA^GA =GBA^G|"D"A2F2F2 fg|
"D"afdf a3a|"G"bged "E"B2 ed|"A"cA^GA =GECA,|"D"D4 D2 fg|
"D"afdf a3~a|"G"bged "E"B2 ed|"A"cA^GA cedc|"D"dfa^g "A7"=gABc|
"D"dAFE D2 FA|"G"BGED "E"B,2 ED|"A7"CEAc egfe|"D"f2d2d2||

